Papirus/16x16/mimetypes/text-x-patch.svg

<svg xmlns="http://www.w3.org/2000/svg" width="16" height="16" version="1.1" viewBox="0 0 16 16">
 <path fill="#4f4f4f" d="m2.75 1c-0.4172 0-0.75 0.3328-0.75 0.75v13.5c0 0.417 0.3328 0.75 0.75 0.75h10.5c0.418 0 0.75-0.332 0.75-0.75v-9.25l-4.125-0.875-0.875-4.125z"/>
 <path fill="#696969" d="m9 1v4.1667c0 0.4584 0.3749 0.8333 0.8333 0.8333h4.1667z"/>
 <path style="fill:#ffc510" d="M 6.4726562 8 L 6.4726562 8.0019531 C 6.0788563 7.9831531 5.6889375 8.1146906 5.3984375 8.4003906 C 4.8220375 8.9767906 4.878225 9.9553563 5.515625 10.597656 L 5.9199219 11 L 5.515625 11.404297 C 4.878205 12.046057 4.8220875 13.025762 5.3984375 13.601562 C 5.9749075 14.177342 6.9555562 14.122535 7.5976562 13.484375 L 8 13.080078 L 8.4023438 13.484375 C 9.0443937 14.121635 10.025263 14.177912 10.601562 13.601562 C 11.177993 13.025213 11.121735 12.046197 10.484375 11.404297 L 10.080078 11 L 10.484375 10.597656 C 11.122375 9.9549563 11.177562 8.9748375 10.601562 8.3984375 C 10.025562 7.8221375 9.0444438 7.878325 8.4023438 8.515625 L 8 8.9199219 L 7.5976562 8.515625 C 7.2741562 8.197025 6.8709562 8.0234 6.4726562 8 z"/>
</svg>

<svg xmlns="http://www.w3.org/2000/svg" width="16" height="16" version="1.1" viewBox="0 0 16 16">
 <path fill="#ccc" d="m2.75 1c-0.4172 0-0.75 0.3328-0.75 0.75v13.5c0 0.417 0.3328 0.75 0.75 0.75h10.5c0.418 0 0.75-0.332 0.75-0.75v-9.25l-4.125-0.875-0.875-4.125z"/>
 <path fill="#f8f8f0" d="m9 1v4.1667c0 0.4584 0.3749 0.8333 0.8333 0.8333h4.1667z"/>
 <path opacity=".5" d="m6.4722 8.0018c-0.3938-0.0188-0.7828 0.1125-1.0733 0.3982-0.5764 0.5764-0.5202 1.5557 0.1172 2.198l0.40299 0.40293-0.40299 0.40305c-0.63742 0.64176-0.69356 1.6218-0.11721 2.1976 0.57647 0.57578 1.5559 0.5206 2.198-0.11756l0.40299-0.40305 0.40299 0.40305c0.64205 0.63726 1.6216 0.6935 2.1979 0.11715 0.57643-0.57635 0.52019-1.5557-0.11717-2.1976l-0.40263-0.40305 0.40263-0.40293c0.638-0.6427 0.693-1.622 0.117-2.1984-0.576-0.5763-1.5557-0.5201-2.1978 0.1172l-0.403 0.4029-0.403-0.4029c-0.3235-0.3186-0.7265-0.4921-1.1248-0.5155zm1.5277 1.4994 0.02812 0.028115c0.00469 0.00469 0.00937 0.00937 0.014059 0.00937 0.00469 0.00937 0.01406 0.018743 0.018746 0.028116 0.00469 0 0.00469 0.00469 0.00937 0.00469 0.00469 0.00937 0.00937 0.018743 0.018746 0.028113 0 0.00469 0.00469 0.00937 0.00937 0.014058 0.00469 0.00937 0.00937 0.014058 0.00937 0.023428 0.00469 0.00937 0.00937 0.014058 0.014059 0.023428 0 0.00469 0 0.00937 0.00469 0.014058 0.00469 0.00469 0.00469 0.014058 0.00937 0.023428 0 0.00937 0 0.014058 0.00469 0.018744 0 0.00937 0 0.018742 0.00469 0.023428v0.014058c0.00468 0.00948 0.00468 0.018833 0.00468 0.028189v0.037486c0 0.00937 0 0.018743-0.00469 0.028113v0.014058c-0.00468 0.00468-0.00468 0.014035-0.00468 0.023391-0.00468 0.00468-0.00468 0.00936-0.00468 0.018713-0.00468 0.00936-0.00468 0.018833-0.00936 0.023511-0.00468 0.00468-0.00468 0.00936-0.00468 0.014035-0.0048 0.00936-0.00948 0.014035-0.014157 0.023391 0 0.00937-0.00469 0.014058-0.00937 0.023428-0.00469 0.00469-0.00937 0.00937-0.00937 0.014058-0.00937 0.0094-0.01406 0.01874-0.018746 0.02811-0.00469 0-0.00469 0.0047-0.00937 0.0047-0.00469 0.0094-0.01406 0.01874-0.018746 0.02812-0.00469 0-0.00937 0.0047-0.014059 0.0094-0.00936 0.0095-0.018716 0.01883-0.028074 0.02819l-0.028074-0.02807c-0.00468-0.0047-0.00936-0.0094-0.014157-0.0094-0.00468-0.0095-0.014037-0.01883-0.018716-0.02819-0.00469 0-0.00469-0.0047-0.00937-0.0047-0.00468-0.0094-0.00936-0.01871-0.018716-0.02807 0-0.00469-0.00469-0.00937-0.00937-0.014058-0.00468-0.00948-0.00936-0.014155-0.00936-0.023511-0.0048-0.00936-0.00948-0.014035-0.014157-0.023391 0-0.00469 0-0.00937-0.00469-0.014058-0.00469-0.00469-0.00469-0.014058-0.00937-0.023428 0-0.00937 0-0.014058-0.00469-0.018744 0-0.00937 0-0.018742-0.00469-0.023428v-0.014058c-0.00468-0.00948-0.00468-0.018833-0.00468-0.028189v-0.037486c0-0.00937 0-0.018743 0.00469-0.028113v-0.014058c0.00468-0.00468 0.00468-0.014035 0.00468-0.023391 0.00468-0.00468 0.00468-0.00936 0.00468-0.018713 0.00468-0.00936 0.00468-0.018833 0.00936-0.023511 0.00468-0.00468 0.00468-0.00936 0.00468-0.014035 0.0048-0.00936 0.00948-0.014035 0.014157-0.023391 0-0.00937 0.00469-0.014058 0.00937-0.023428 0.00469-0.00469 0.00937-0.00937 0.00937-0.014058 0.00937-0.00937 0.01406-0.018743 0.018746-0.028113 0.00469 0 0.00469-0.00469 0.00937-0.00469 0.00469-0.00937 0.01406-0.018744 0.018746-0.028115 0.00469 0 0.00937-0.00469 0.014059-0.00937 0.00936-0.00948 0.018716-0.018833 0.028074-0.028189zm-0.5389 0.7268c0.032806 0 0.070297 0 0.1031 0.0094 0.032805 0.12652-0.00469 0.2624-0.098415 0.35612-0.089043 0.09371-0.22495 0.13121-0.35148 0.09371-0.037492-0.12652 0-0.2624 0.093729-0.35143 0.065505-0.07041 0.15932-0.10784 0.25302-0.10784zm1.0779 0c0.093729 0 0.18746 0.03749 0.25307 0.10777 0.093729 0.08903 0.13123 0.22492 0.093729 0.35143-0.12654 0.03749-0.26244 0-0.35148-0.09371-0.093699-0.0938-0.13125-0.22959-0.098378-0.35615 0.032753-0.0094 0.070304-0.0094 0.10306-0.0094zm-0.53892 0.47322h0.028122c0.00469 0 0.014059 0.0047 0.023432 0.0047h0.00469c0.00937 0.0047 0.01406 0.0047 0.023432 0.0047l0.00469 0.0047c0.00937 0 0.018747 0.0047 0.02812 0.0094 0.00937 0 0.01406 0.0047 0.023432 0.0094 0 0 0.00469 0 0.00469 0.0047 0.00469 0 0.00937 0.0047 0.014059 0.0047 0.00469 0.0047 0.00937 0.0094 0.018746 0.01405 0.00469 0.0047 0.00937 0.0094 0.01406 0.0094 0.00937 0.0094 0.018746 0.01405 0.023432 0.02343 0.00937 0.0047 0.01406 0.01406 0.023432 0.02343 0 0.0047 0.00469 0.0094 0.00937 0.01406 0.00469 0.0094 0.00937 0.01405 0.01406 0.01874 0 0.0047 0.00469 0.0094 0.00469 0.01406 0.00469 0 0.00469 0.0047 0.00469 0.0047 0.00469 0.0094 0.00937 0.01406 0.00937 0.02343 0.00469 0.0094 0.00937 0.01874 0.00937 0.02812l0.00469 0.0047c0 0.0094 0 0.01405 0.00469 0.02343v0.0047c0 0.0094 0.00469 0.01874 0.00469 0.02343v0.05626c0 0.0047-0.00469 0.01406-0.00469 0.02343v0.0047c-0.00469 0.0094-0.00469 0.01405-0.00469 0.02343l-0.00469 0.0047c0 0.0094-0.00469 0.01875-0.00937 0.02812 0 0.0094-0.00469 0.01406-0.00937 0.02343 0 0 0 0.0047-0.00469 0.0047 0 0.0047-0.00469 0.0094-0.00469 0.01405-0.00469 0.0047-0.00937 0.0094-0.01406 0.01875-0.00469 0.0047-0.00937 0.0094-0.00937 0.01405-0.00937 0.0094-0.014059 0.01875-0.023432 0.02343-0.00469 0.0094-0.01406 0.01406-0.023432 0.02343-0.00469 0-0.00937 0.0047-0.01406 0.0094-0.00937 0.0047-0.01406 0.0094-0.018746 0.01406-0.00469 0-0.00937 0.0047-0.014059 0.0047 0 0.0047-0.00469 0.0047-0.00469 0.0047-0.00937 0.0047-0.01406 0.0094-0.023432 0.0094-0.00937 0.0047-0.018746 0.0094-0.02812 0.0094l-0.00469 0.0047c-0.00937 0-0.014059 0-0.023432 0.0047h-0.00469c-0.00937 0-0.018746 0.0047-0.023432 0.0047h-0.056244c-0.00469 0-0.014059-0.0047-0.023432-0.0047h-0.00469c-0.00937-0.0047-0.01406-0.0047-0.023432-0.0047l-0.00469-0.0047c-0.00937 0-0.018747-0.0047-0.02812-0.0094-0.00937 0-0.01406-0.0047-0.023432-0.0094 0 0-0.00469 0-0.00469-0.0047-0.00469 0-0.00937-0.0047-0.014059-0.0047-0.00469-0.0047-0.00937-0.0094-0.018746-0.01406-0.00469-0.0047-0.00937-0.0094-0.01406-0.0094-0.00937-0.0094-0.018746-0.01405-0.023432-0.02343-0.00937-0.0047-0.01406-0.01405-0.023432-0.02343 0-0.0047-0.00469-0.0094-0.00937-0.01405-0.00469-0.0094-0.00937-0.01405-0.01406-0.01875 0-0.0047-0.00469-0.0094-0.00469-0.01405-0.00469 0-0.00469-0.0047-0.00469-0.0047-0.00469-0.0094-0.00937-0.01406-0.00937-0.02343-0.00469-0.0094-0.00937-0.01875-0.00937-0.02812l-0.00469-0.0047c0-0.0094 0-0.01405-0.00469-0.02343v-0.0047c0-0.0094-0.00469-0.01875-0.00469-0.02343v-0.05626c0-0.0047 0.00469-0.01405 0.00469-0.02343v-0.0047c0.00469-0.0094 0.00469-0.01405 0.00469-0.02343l0.00469-0.0047c0-0.0094 0.00469-0.01874 0.00937-0.02812 0-0.0094 0.00469-0.01406 0.00937-0.02343 0 0 0-0.0047 0.00469-0.0047 0-0.0047 0.00469-0.0094 0.00469-0.01406 0.00468-0.0047 0.00936-0.0094 0.014037-0.01871 0.00468-0.0047 0.00936-0.0094 0.00936-0.01403 0.00936-0.0095 0.014037-0.01883 0.023395-0.02351 0.00468-0.0094 0.014037-0.01403 0.023515-0.02339 0.00469 0 0.00937-0.0047 0.01406-0.0094 0.00937-0.0047 0.01406-0.0094 0.018746-0.01405 0.00469 0 0.00937-0.0047 0.014059-0.0047 0-0.0047 0.00469-0.0047 0.00469-0.0047 0.00937-0.0047 0.01406-0.0094 0.023432-0.0094 0.00937-0.0047 0.018746-0.0094 0.02812-0.0094l0.00469-0.0047c0.00937 0 0.014059 0 0.023432-0.0047h0.00469c0.00937 0 0.018746-0.0047 0.023432-0.0047h0.028122zm-1.2045 0.15c0.11241 0 0.22495 0.05158 0.30461 0.14994-0.164 0.20152-0.43586 0.20152-0.59986 0 0.079662-0.09369 0.18272-0.14994 0.29525-0.14994zm2.4088 0c0.11253 0 0.21559 0.05626 0.29525 0.14994-0.164 0.20152-0.43586 0.20152-0.59986 0 0.079662-0.09836 0.1922-0.14994 0.30461-0.14994zm-2.0011 0.57635c0.098415-0.0047 0.19215 0.03749 0.26244 0.10777 0.093728 0.08903 0.13121 0.22492 0.098415 0.35143-0.12654 0.03749-0.26244 0-0.35618-0.09373-0.093729-0.09372-0.13123-0.2296-0.093729-0.35612 0.028118-0.0047 0.056237-0.0094 0.089043-0.0094zm1.5934 0c0.032806 0 0.060924 0.0047 0.089043 0.0094 0.037491 0.12652 0 0.2624-0.093729 0.35612s-0.22964 0.13121-0.35618 0.09372c-0.032805-0.12652 0.00469-0.2624 0.098415-0.35143 0.070297-0.07028 0.16403-0.11246 0.26244-0.10777zm-0.79662 0.47382c0.00937 0.0094 0.018746 0.01875 0.02812 0.02812 0.00469 0.0047 0.00937 0.0094 0.014059 0.0094 0.00469 0.0094 0.01406 0.01875 0.018746 0.02812 0.00469 0 0.00469 0.0047 0.00937 0.0047 0.00469 0.0094 0.00937 0.01875 0.018746 0.02812 0 0.0047 0.00469 0.0094 0.00937 0.01405 0.00469 0.0094 0.00937 0.01406 0.00937 0.02343 0.00469 0.0094 0.00937 0.01405 0.014059 0.02343 0 0.0047 0 0.0094 0.00469 0.01405 0.00469 0.0047 0.00469 0.01406 0.00937 0.02343 0 0.0094 0 0.01405 0.00469 0.01875 0 0.0094 0 0.01873 0.00469 0.02343v0.01406c0.00469 0.0094 0.00469 0.01873 0.00469 0.02812v0.0375c0 0.0094 0 0.01875-0.00469 0.02812v0.01406c-0.00469 0.0047-0.00469 0.01405-0.00469 0.02343-0.00469 0.0047-0.00469 0.0094-0.00469 0.01875-0.00469 0.0094-0.00469 0.01873-0.00937 0.02343-0.00469 0.0047-0.00469 0.0094-0.00469 0.01406-0.00469 0.0094-0.00937 0.01405-0.014059 0.02343 0 0.0094-0.00469 0.01406-0.00937 0.02343-0.00469 0.0047-0.00937 0.0094-0.00937 0.01406-0.00937 0.0094-0.01406 0.01875-0.018746 0.02812-0.00469 0-0.00469 0.0047-0.00937 0.0047-0.00469 0.0094-0.01406 0.01875-0.018746 0.02812-0.00469 0-0.00937 0.0047-0.014059 0.0094-0.00936 0.0084-0.018716 0.01799-0.028074 0.02759-0.00936-0.0096-0.018716-0.01919-0.028074-0.02759-0.00469-0.0047-0.00937-0.0094-0.014059-0.0094-0.00469-0.0094-0.01406-0.01875-0.018746-0.02812-0.00469 0-0.00469-0.0047-0.00937-0.0047-0.00469-0.0094-0.00937-0.01875-0.018746-0.02812 0-0.0047-0.00469-0.0094-0.00937-0.01406-0.00469-0.0094-0.00937-0.01405-0.00937-0.02343-0.00469-0.0094-0.00937-0.01405-0.014059-0.02343 0-0.0047 0-0.0094-0.00469-0.01406-0.00469-0.0047-0.00469-0.01405-0.00937-0.02343 0-0.0094 0-0.01405-0.00469-0.01875 0-0.0094 0-0.01873-0.00469-0.02343v-0.01406c-0.00468-0.0108-0.00468-0.02039-0.00468-0.02879v-0.0375c0-0.0094 0-0.01875 0.00469-0.02812v-0.01405c0.00469-0.0047 0.00469-0.01406 0.00469-0.02343 0.00469-0.0047 0.00469-0.0094 0.00469-0.01875 0.00469-0.0094 0.00469-0.01873 0.00937-0.02343 0.00469-0.0047 0.00469-0.0094 0.00469-0.01405 0.00469-0.0094 0.00937-0.01406 0.014059-0.02343 0-0.0094 0.00469-0.01405 0.00937-0.02343 0.00469-0.0047 0.00937-0.0094 0.00937-0.01405 0.00937-0.0094 0.01406-0.01875 0.018746-0.02812 0.00469 0 0.00469-0.0047 0.00937-0.0047 0.00469-0.0094 0.01406-0.01875 0.018746-0.02812 0.00469 0 0.00937-0.0047 0.014059-0.0094 0.00936-0.0096 0.018716-0.01919 0.028074-0.02879z"/>
</svg>
